src/assets/icons/remotes/google.svg

<svg width="24" height="24" viewBox="0 0 24 24" fill="currentColor" xmlns="http://www.w3.org/2000/svg">
    <path
        d="M21 12.7222C21 18.1425 17.2273 22 11.6557 22C6.31393 22 2 17.7556 2 12.5C2 7.24435 6.31393 3 11.6557 3C14.2566 3 16.4447 3.93851 18.1305 5.48609L15.5025 7.97218C12.0645 4.70847 5.67152 7.16008 5.67152 12.5C5.67152 15.8135 8.36188 18.4988 11.6557 18.4988C15.4791 18.4988 16.9119 15.802 17.1377 14.4038H11.6557V11.1363H20.8482C20.9377 11.6228 21 12.0901 21 12.7222Z" />
</svg>

<svg xmlns="http://www.w3.org/2000/svg" width="24" height="24" fill="currentColor" viewBox="0 0 24 24"><path d="M21 12.722C21 18.142 17.227 22 11.656 22 6.314 22 2 17.756 2 12.5S6.314 3 11.656 3c2.6 0 4.789.939 6.475 2.486l-2.629 2.486c-3.437-3.264-9.83-.812-9.83 4.528 0 3.313 2.69 5.999 5.984 5.999 3.823 0 5.256-2.697 5.482-4.095h-5.482v-3.268h9.192c.09.487.152.954.152 1.586"/></svg>
